!!!!SEGMENT: pl-sa--l-1643--074_anonim--haec-est-vera-fraternitas.krn
!!!cenid: 16xx:1432
!!!COM: Anonim
!!!COM-rismid: pe30004985
!!!CDT:
!!!CNT:
!!!OTL: Haec est vera fraternitas
!!!PDT:
!!!AGN: Sacred
!!!SMS-siglum: PL-SA
!!!SMS-shelfmark: L 1643
!!!SMS-shelfwork: 074 W
!!!SMS-variant:
!!!SMS-altvar:
!!!NIFC-rismid: 1001064168
!!!URL-scan: http://repozytorium.nifc.pl/skany/pl-sa-nut--l1643
!!!ONB-nifc: UWAGA: 8 ksiąg. Primi chori: 1mus Cantus (x), C 2dus (120-121), C 3tius (x), Bassus (x); Secondi chori: Primus Cantus (x), C 2dus (103-104), Altus (x), Bassus (x). UWAGA: Nie dodawać pustych linii, chyba że w rękopisie pojawiają się dodatkowe oznaczenia dotyczące pełnej obsady (a 4, a 8 itp.)
**kern	**text	**kern	**text
*part2	*part2	*part1	*part1
*staff2	*staff2	*staff1	*staff1
*Iempty	*	*Iempty	*
*I"Cantus 2dus Secundi Chori.	*	*I"Cantus 2dus Primi Chori.	*
*I'Coro 2 S 2	*	*I'Coro 1 S 2	*
*clefC1	*	*clefC1	*
*k[]	*	*k[]	*
*d:	*	*d:	*
*M2/2	*	*M2/2	*
*met(c|)	*	*met(c|)	*
=1-	=1-	=1-	=1-
1.a	Hec	0r	.
=2-	=2-	=2-	=2-
.	.	.	.
2a\	eſt	.	.
=3-	=3-	=3-	=3-
2.f/	ve-	1r	.
4g/	.	.	.
=4-	=4-	=4-	=4-
2a\	-ra	2r	.
2r	.	1a\	Hec
=5-	=5-	=5-	=5-
0r	.	.	.
.	.	2a\	eſt
=6-	=6-	=6-	=6-
.	.	2.f/	ve-
.	.	4g/	.
=7-	=7-	=7-	=7-
2r	.	2a\	-ra
1cc\	[[qua]] hec	2r	.
=8-	=8-	=8-	=8-
.	.	0r	.
2cc\	eſt	.	.
=9-	=9-	=9-	=9-
1a	ue-	.	.
=10-	=10-	=10-	=10-
2a\	-ra,	2r	.
2r	.	1cc\	hec
=11-	=11-	=11-	=11-
00r	.	.	.
.	.	2cc\	eſt
=12-	=12-	=12-	=12-
.	.	1a	ve-
=13-	=13-	=13-	=13-
.	.	2a\	-ra
.	.	2cc\	fra-
=14-	=14-	=14-	=14-
.	.	2b-X\	-ter-
.	.	2a\	-ni-
=15-	=15-	=15-	=15-
2r	.	2a\	-tas
2cc\	qua	2r	.
=16-	=16-	=16-	=16-
4cc\	nun-	1r	.
4a\	-quam	.	.
!LO:N:vis=4.	!	!	!
4a\	po-	.	.
4g/	-tu-	.	.
=17-	=17-	=17-	=17-
2a\	-it	2r	.
2r	.	2cc\	quae
=18-	=18-	=18-	=18-
1r	.	4cc\	nun-
.	.	4a\	-quam
.	.	4.cc\	po-
!	!	!LO:SIC:v:t=custos cc	!
.	.	8dd\	-tu-
=19-	=19-	=19-	=19-
!	!	!LO:LB:g=original	!
2r	.	2cc\	-it
!LO:TX:b:t=P:problem:# below	!	!	!
4cc#X\	vi-	2r	.
4cc#\	-o-	.	.
=20-	=20-	=20-	=20-
1dd	-la-	1r	.
=21-	=21-	=21-	=21-
!LO:TX:b:t=P:problem:# below	!	!	!
2cc#X\	-ri	2r	.
!	!	!LO:TX:b:t=P:problem:# below	!
2r	.	4cc#X\	ui-
.	.	4cc#\	-o-
=22-	=22-	=22-	=22-
1r	.	1dd	-la-
=23-	=23-	=23-	=23-
!LO:SIC:v:t=custos cc	!	!LO:TX:b:t=P:problem:# below	!
2r	.	2cc#X\	-ri
!LO:TX:b:t=P:problem:# below	!	!	!
!LO:LB:g=original	!	!	!
4cc#X\	vi-	2r	.
4cc#\	-o-	.	.
=24-	=24-	=24-	=24-
!	!	!LO:TX:t=P:problem:fragment niewidoczny	!
1dd	-la-	1r	.
=25-	=25-	=25-	=25-
!LO:TX:b:t=P:problem:# below	!	!	!
2cc#X\	-ri	2r	.
!	!	!LO:TX:b:t=P:problem:# below	!
2r	.	4cc#X\	ui-
.	.	4cc#\	-o-
=26-	=26-	=26-	=26-
0r	.	1dd	-la-
=27-	=27-	=27-	=27-
!	!	!LO:TX:b:t=P:problem:# below	!
.	.	2cc#X\	-ri
.	.	2a\	cer-
=28-	=28-	=28-	=28-
1r	.	2b-X\	-ta-
.	.	2a\	-mi-
=29-	=29-	=29-	=29-
2r	.	2a,<\	-ne
!LO:TX:b:t=P:problem:# below	!	!	!
2cc#X\	cer-	2a\	cer-
=30-	=30-	=30-	=30-
2dd\	-ta-	2a\	-ta-
2ee\	-mi-	2a\	-mi-
=31-	=31-	=31-	=31-
2a\	-ne	2a\	-ne
2ccny\	qui	2r	.
=32-	=32-	=32-	=32-
4cc\	ef-	0r	.
2cc\	-fu-	.	.
4cc\	-so	.	.
=33-	=33-	=33-	=33-
2cc\	ſan-	.	.
2b\	-gui-	.	.
=34-	=34-	=34-	=34-
2cc\	-ne	2r	.
2r	.	2cc\	qui
=35-	=35-	=35-	=35-
0r	.	4cc\	ef-
!	!	!LO:SIC:v:t=custos cc	!
!	!	!LO:TX:b:t=so:problem:text custos	!
.	.	2cc\	-fu-
!	!	!LO:PB:g=original	!
.	.	4cc\	-so
=36-	=36-	=36-	=36-
.	.	2a\	ſan-
.	.	2bny\	-gui-
=37-	=37-	=37-	=37-
4r	.	2cc\	-ne
4cc\	ſe-	.	.
4a\	-cu-	2r	.
4g/	-ti	.	.
=38-	=38-	=38-	=38-
2cc\	sunt	4r	.
.	.	4cc\	se-
2r	.	4cc\	-cu-
.	.	4b\	-ti
=39-	=39-	=39-	=39-
4r	.	2cc\	sunt
4cc\	ſe-	.	.
4a\	-cu-	2r	.
4g/	-ti	.	.
=40-	=40-	=40-	=40-
2cc\	ſunt	4r	.
.	.	4cc\	se-
!LO:SIC:v:t=custos dd	!	!	!
2r	.	4a\	-cu-
.	.	4dd\	-ti
=41-	=41-	=41-	=41-
!LO:PB:g=original	!	!	!
2r	.	2cc\	sunt
1dd\	ſe-	2a\	se-
=42-	=42-	=42-	=42-
.	.	2a\	-cu-
2a\	-cu-	2a\	-ti
=43-	=43-	=43-	=43-
1a	-ti	4a\	se-
.	.	4a\	-cu-
.	.	2a\	-ti
=44-	=44-	=44-	=44-
2a,<\	ſunt,	2a\	sunt,
4a\	con-	2r	.
4a\	-tem-	.	.
=45-	=45-	=45-	=45-
4cc\	-nen-	0r	.
4cc\	-tes	.	.
4cc\	au-	.	.
4cc\	-lam	.	.
=46-	=46-	=46-	=46-
4cc\	re-	.	.
4a\	-gi-	.	.
2a\	-am	.	.
=47-	=47-	=47-	=47-
0r	.	4cc\	Con-
!	!	!LO:SIC:v:t=custos dd	!
.	.	4cc\	-tem-
!	!	!LO:LB:g=original	!
.	.	4dd\	-nen-
.	.	4a\	-tes
=48-	=48-	=48-	=48-
.	.	4cc\	au-
.	.	4cc\	-lam
.	.	4b-X\	re-
.	.	4b-\	-gi-
=49-	=49-	=49-	=49-
2r	.	2a\	-am
*	*ij	*	*
4cc\	con-	2r	.
4cc\	-tem-	.	.
=50-	=50-	=50-	=50-
4cc\	-nen-	0r	.
4cc\	-tes	.	.
4a\	au-	.	.
4cc\	-lam	.	.
=51-	=51-	=51-	=51-
4b-X\	re-	.	.
4b-\	-gi-	.	.
2a\	-am	.	.
*	*Xij	*	*
=52-	=52-	=52-	=52-
0r	.	4cc\	Con-
.	.	4cc\	-tem-
.	.	4dd\	-nen-
.	.	4a\	-tes
=53-	=53-	=53-	=53-
.	.	4cc\	au-
.	.	4cc\	-lam
.	.	4b-X\	re-
.	.	4b-\	-gi-
=54-	=54-	=54-	=54-
2r	.	2a\	-am
4a\	per-	4cc\	per-
!LO:SIC:v:t=custos cc	!	!	!
4a\	-ue-	4cc\	-ue-
=55-	=55-	=55-	=55-
!LO:LB:g=original	!	!	!
2cc\	-ne-	1cc	-ne-
2g/	-runt	.	.
=56-	=56-	=56-	=56-
2g/	ad	2b-X\	-ru(n)t
2f/	reg-	2a\	ad
=57-	=57-	=57-	=57-
1g	-na	1b-X	reg-
=58-	=58-	=58-	=58-
!	!	!LO:SIC:v:t=custos a	!
1a	ce-	2a\	-na
!	!	!LO:LB:g=original	!
.	.	2a\	cae-
=59-	=59-	=59-	=59-
2.a\	-le-	2.a\	-le-
4a\	-ſti-	4a\	-ſti-
=60-	=60-	=60-	=60-
2a\	-a,	2a\	-a
2r	.	2a\	ad
=61-	=61-	=61-	=61-
00r	.	2.a\	re-
.	.	4bny\	.
=62-	=62-	=62-	=62-
.	.	2cc\	.
.	.	2b-X\	.
=63-	=63-	=63-	=63-
.	.	2a\	-gna
.	.	2cc\	cae-
=64-	=64-	=64-	=64-
.	.	2.cc\	-le-
.	.	4cc\	-ſti-
=65-	=65-	=65-	=65-
1r	.	1cc	-a,
=66-	=66-	=66-	=66-
*M3/2	*	*M3/2	*
1cc	Ec-	00.r	.
1cc\	-ce	.	.
=67-	=67-	=67-	=67-
.	.	.	.
1a	quam	.	.
=68-	=68-	=68-	=68-
0a	bo-	.	.
=69-	=69-	=69-	=69-
.	.	.	.
1a	-num	.	.
=70-	=70-	=70-	=70-
00.r	.	1ee	Et
.	.	1dd\	quam
=71-	=71-	=71-	=71-
.	.	.	.
.	.	1nyb	iu-
=72-	=72-	=72-	=72-
!	!	!LO:TX:b:t=P:problem:# below	!
.	.	0cc#X	-cun-
=73-	=73-	=73-	=73-
.	.	.	.
!	!	!LO:SIC:v:t=custos cc	!
!	!	!LO:TX:b:t=P:problem:# below	!
.	.	1cc#X	-du(m)
=74-	=74-	=74-	=74-
!	!	!LO:LB:g=original	!
*	*ij	*	*
1cc	Ec-	00.r	.
1cc\	-ce	.	.
=75-	=75-	=75-	=75-
.	.	.	.
1a	quam	.	.
=76-	=76-	=76-	=76-
0a	bo-	.	.
=77-	=77-	=77-	=77-
.	.	.	.
1a	-num	.	.
*	*Xij	*	*
=78-	=78-	=78-	=78-
00.r	.	1ccny	et
.	.	1b-X\	quam
=79-	=79-	=79-	=79-
.	.	.	.
.	.	1a	iu-
=80-	=80-	=80-	=80-
.	.	0a	-cun-
=81-	=81-	=81-	=81-
!LO:SIC:v:t=custos dd	!	!	!
.	.	.	.
.	.	1a	-dum,
=82-	=82-	=82-	=82-
!LO:LB:g=original	!	!	!
0dd	ha-	0.r	.
=83-	=83-	=83-	=83-
.	.	.	.
1a	-bi-	.	.
=84-	=84-	=84-	=84-
0a	-ta-	0dd	ha-
=85-	=85-	=85-	=85-
.	.	.	.
1a,	-re	1a	-bi-
=86-	=86-	=86-	=86-
*	*ij	*	*
0a	ha-	0dd	-ta-
=87-	=87-	=87-	=87-
.	.	.	.
1a	-bi-	1cc#X	-re
=88-	=88-	=88-	=88-
0a	-ta-	0dd	ha-
=89-	=89-	=89-	=89-
.	.	.	.
1a,	-re	1a	-bi-
*	*Xij	*	*
=90-	=90-	=90-	=90-
0a	ha-	0dd	-ta-
=91-	=91-	=91-	=91-
.	.	.	.
1a	-bi-	1cc#	-re
=92-	=92-	=92-	=92-
0dd	-ta-	0.r	.
=93-	=93-	=93-	=93-
.	.	.	.
!LO:TX:b:t=P:problem:# below	!	!	!
1cc#X	-re	.	.
=94-	=94-	=94-	=94-
00.r	.	0ccny	ha-
=95-	=95-	=95-	=95-
.	.	.	.
.	.	1cc	-bi-
=96-	=96-	=96-	=96-
.	.	1a	-ta-
.	.	1dd\	.
=97-	=97-	=97-	=97-
.	.	.	.
!	!	!LO:TX:b:t=P:problem:# below	!
.	.	1cc#X	-re
=98-	=98-	=98-	=98-
1a	Frat-	0.r	.
1cc\ny	-res	.	.
=99-	=99-	=99-	=99-
!	!	!LO:SIC:v:t=custos cc	!
.	.	.	.
1dd	in	.	.
=100-	=100-	=100-	=100-
!	!	!LO:TX:b:t=P:problem:# below	!
!	!	!LO:LB:g=original	!
0a	u-	1cc#X	frat-
!	!	!LO:TX:b:t=P:problem:# below	!
.	.	1cc#X\	-res
=101-	=101-	=101-	=101-
.	.	.	.
1a,	-num	1dd	in
=102-	=102-	=102-	=102-
!	!	!LO:TX:b:t=P:problem:# below	!
*	*ij	*	*
1a	Frat-	0cc#X	v-
1a\	-res	.	.
=103-	=103-	=103-	=103-
.	.	.	.
!LO:SIC:v:t=custos a	!	!	!
1a	in	1dd,	-num
=104-	=104-	=104-	=104-
!LO:LB:g=original	!	!LO:TX:b:t=P:problem:# below	!
0a	u-	1cc#X	frat-
!	!	!LO:TX:b:t=P:problem:# below	!
.	.	1cc#X\	-res
=105-	=105-	=105-	=105-
.	.	.	.
1a	-num	1dd	in
*	*Xij	*	*
=106-	=106-	=106-	=106-
*M2/2	*	*M2/2	*
*met(c|)	*	*met(c|)	*
!	!	!LO:TX:b:t=P:problem:# below	!
1a	frat-	1cc#X	u-
=107-	=107-	=107-	=107-
2a\	-res	2dd,<\	-num
2dd\	in	2dd\	frat-
=108-	=108-	=108-	=108-
1.dd	u-	1dd	-res
=109-	=109-	=109-	=109-
.	.	1dd	in
2a\	-num	.	.
=110-	=110-	=110-	=110-
!	!	!LO:TX:a:t=P:problem:# below	!
1a	in	0cc#X	u-
=111-	=111-	=111-	=111-
1a	u-	.	.
=112-	=112-	=112-	=112-
00a	-num,	00dd;<	-num;
==113	==113	==113	==113
*-	*-	*-	*-
!!!system-decoration: [(s1)][(s2)]
!!!AIN: 2 empty
!!!ENC: Filip Voros
!!!END: 2021-10-19
!!!ENC: Krzysztof Stępień
!!!END: 2021-10-22
!!!RDF**kern: > = above
!!!RDF**kern: < = below
